assets/svgs/misc-grey/MiscGrey14.svg

<svg width="47" height="47" viewBox="0 0 47 47" fill="none" xmlns="http://www.w3.org/2000/svg">
<path fill-rule="evenodd" clip-rule="evenodd" d="M3.736 9.27998C3.697 9.81998 3.749 11.49 5.153 15.14L5.198 15.27C7.071 22 20.638 36.84 28.241 40.48C33.926 43.2 37.229 43.72 37.869 43.55C38.601 43.26 40.736 40.7 41.647 39.61C42.089 39.08 42.486 38.6 42.802 38.25C43.067 37.95 43.057 37.78 43.054 37.72C43.037 37.43 42.767 37.08 42.601 36.92L34.961 31.74C33.91 31.42 33.086 31.68 32.93 31.73L27.491 34.69L26.729 34.15C18.41 28.28 13.279 20.27 13.064 19.93L12.615 19.22L12.985 18.46C13.063 18.31 14.896 14.58 15.786 13.07C16.014 12.68 15.654 11.49 15.192 10.73C13.785 8.54998 11.179 4.75998 10.274 3.98998C9.86699 3.63998 9.35499 3.90998 9.15699 4.03998C6.89 5.99998 4.27299 8.48998 3.736 9.27998ZM37.595 46.56C34.975 46.56 30.559 44.91 26.946 43.18C18.68 39.23 4.469 23.61 2.329 16.15C1.058 12.84 0.526995 10.24 0.794995 8.62998C0.877995 8.12998 1.05199 7.08998 7.25399 1.70998L7.336 1.64998C8.225 0.979982 10.391 0.129982 12.227 1.70998C13.722 2.98998 17.077 8.11998 17.734 9.12998C17.954 9.48998 19.662 12.41 18.369 14.6C17.771 15.61 16.651 17.83 16.063 19.01C17.417 20.96 21.652 26.67 27.708 31.15L31.662 29.01C31.869 28.92 33.758 28.11 36.136 28.97L36.473 29.14L44.502 34.59C44.648 34.71 45.929 35.84 46.046 37.5C46.094 38.19 45.958 39.22 45.038 40.25C44.74 40.58 44.366 41.03 43.951 41.53C41.792 44.11 40.156 45.98 38.755 46.41C38.428 46.51 38.037 46.56 37.595 46.56Z" fill="#1A1919"/>
</svg>

<svg xmlns="http://www.w3.org/2000/svg" fill="none" viewBox="0 0 47 47"><path fill="#1A1919" fill-rule="evenodd" d="M3.736 9.28c-.039.54.013 2.21 1.417 5.86l.045.13C7.071 22 20.638 36.84 28.241 40.48c5.685 2.72 8.988 3.24 9.628 3.07.732-.29 2.867-2.85 3.778-3.94.442-.53.839-1.01 1.155-1.36.265-.3.255-.47.252-.53-.017-.29-.287-.64-.453-.8l-7.64-5.18c-1.051-.32-1.875-.06-2.031-.01l-5.439 2.96-.762-.54c-8.319-5.87-13.45-13.88-13.665-14.22l-.449-.71.37-.76c.078-.15 1.911-3.88 2.801-5.39.228-.39-.132-1.58-.594-2.34-1.407-2.18-4.013-5.97-4.918-6.74-.407-.35-.919-.08-1.117.05C6.89 6 4.273 8.49 3.736 9.28zm33.859 37.28c-2.62 0-7.036-1.65-10.649-3.38C18.68 39.23 4.469 23.61 2.329 16.15 1.058 12.84.527 10.24.795 8.63c.083-.5.257-1.54 6.459-6.92l.082-.06c.889-.67 3.055-1.52 4.891.06 1.495 1.28 4.85 6.41 5.507 7.42.22.36 1.928 3.28.635 5.47-.598 1.01-1.718 3.23-2.306 4.41 1.354 1.95 5.589 7.66 11.645 12.14l3.954-2.14c.207-.09 2.096-.9 4.474-.04l.337.17 8.029 5.45c.146.12 1.427 1.25 1.544 2.91.048.69-.088 1.72-1.008 2.75-.298.33-.672.78-1.087 1.28-2.159 2.58-3.795 4.45-5.196 4.88-.327.1-.718.15-1.16.15z" clip-rule="evenodd"/></svg>
